Newaita-dark/.DP/22/simplescreenrecorder-panel.svg

<svg xmlns="http://www.w3.org/2000/svg" xmlns:xlink="http://www.w3.org/1999/xlink" width="22px" height="22px" viewBox="0 0 22 22" version="1.1">
<g id="surface1">
<path style=" stroke:none;fill-rule:nonzero;fill:rgb(93.333334%,93.333334%,93.333334%);fill-opacity:1;" d="M 3.636719 3.808594 C 2.628906 3.808594 1.820312 4.621094 1.820312 5.628906 L 1.820312 7.5 C 1.820312 7.976562 2.226562 8.359375 2.726562 8.359375 C 3.234375 8.359375 3.636719 7.976562 3.636719 7.5 L 3.636719 6.539062 C 3.636719 6.035156 4.042969 5.628906 4.546875 5.628906 L 5.457031 5.628906 C 5.960938 5.628906 6.367188 5.246094 6.367188 4.773438 L 6.367188 4.664062 C 6.367188 4.191406 5.960938 3.808594 5.457031 3.808594 Z M 16.371094 3.808594 C 15.867188 3.808594 15.464844 4.191406 15.464844 4.664062 L 15.464844 4.773438 C 15.464844 5.246094 15.867188 5.628906 16.371094 5.628906 L 17.28125 5.628906 C 17.785156 5.628906 18.191406 6.035156 18.191406 6.539062 L 18.191406 7.5 C 18.191406 7.976562 18.597656 8.359375 19.101562 8.359375 C 19.605469 8.359375 20.011719 7.976562 20.011719 7.5 L 20.011719 5.628906 C 20.011719 4.621094 19.199219 3.808594 18.191406 3.808594 Z M 2.726562 13.59375 C 2.226562 13.59375 1.820312 13.976562 1.820312 14.453125 L 1.820312 16.324219 C 1.820312 17.332031 2.628906 18.144531 3.636719 18.144531 L 5.457031 18.144531 C 5.960938 18.144531 6.367188 17.761719 6.367188 17.285156 L 6.367188 17.179688 C 6.367188 16.707031 5.960938 16.324219 5.457031 16.324219 L 4.546875 16.324219 C 4.042969 16.324219 3.636719 15.917969 3.636719 15.414062 L 3.636719 14.453125 C 3.636719 13.976562 3.234375 13.59375 2.726562 13.59375 Z M 19.101562 13.59375 C 18.597656 13.59375 18.191406 13.976562 18.191406 14.453125 L 18.191406 15.414062 C 18.191406 15.917969 17.785156 16.324219 17.28125 16.324219 L 16.371094 16.324219 C 15.867188 16.324219 15.464844 16.707031 15.464844 17.179688 L 15.464844 17.285156 C 15.464844 17.761719 15.867188 18.144531 16.371094 18.144531 L 18.191406 18.144531 C 19.199219 18.144531 20.011719 17.332031 20.011719 16.324219 L 20.011719 14.453125 C 20.011719 13.976562 19.605469 13.59375 19.101562 13.59375 Z M 19.101562 13.59375 "/>
<path style=" stroke:none;fill-rule:nonzero;fill:rgb(93.333334%,93.333334%,93.333334%);fill-opacity:1;" d="M 10.914062 7.449219 C 12.925781 7.449219 14.554688 9.078125 14.554688 11.085938 C 14.554688 13.097656 12.925781 14.726562 10.914062 14.726562 C 8.90625 14.726562 7.277344 13.097656 7.277344 11.085938 C 7.277344 9.078125 8.90625 7.449219 10.914062 7.449219 Z M 10.914062 7.449219 "/>
</g>
</svg>

<svg xmlns="http://www.w3.org/2000/svg" width="22" height="22"><g fill="#bdbdbd"><path d="M3.637 3.809a1.814 1.814 0 0 0-1.817 1.82V7.5c0 .477.407.86.91.86.504 0 .907-.383.907-.86v-.96c0-.505.406-.911.91-.911h.91c.504 0 .91-.383.91-.856v-.105c0-.477-.406-.86-.91-.86zm12.734 0c-.504 0-.906.382-.906.859v.105c0 .473.402.856.906.856h.91c.504 0 .91.406.91.91V7.5c0 .477.407.86.91.86.504 0 .91-.383.91-.86V5.629c0-1.008-.812-1.82-1.82-1.82zm-13.64 9.785c-.504 0-.91.383-.91.855v1.875c0 1.008.808 1.82 1.816 1.82h1.82c.504 0 .91-.382.91-.859v-.105c0-.473-.406-.856-.91-.856h-.91a.909.909 0 0 1-.91-.91v-.965c0-.472-.403-.855-.907-.855zm16.37 0c-.503 0-.91.383-.91.855v.965c0 .504-.406.91-.91.91h-.91c-.504 0-.906.383-.906.856v.105c0 .477.402.86.906.86h1.82c1.008 0 1.82-.813 1.82-1.82v-1.876c0-.472-.406-.855-.91-.855zm0 0M10.914 7.45a3.638 3.638 0 1 1 .004 7.276 3.638 3.638 0 0 1-.004-7.277zm0 0"/></g></svg>
